X: 26480
T: Michael Coleman's
R: barndance
M: 4/4
K: Gmajor
GE|:D2 DE G2 GA|B2 ~BA Bc d2|de ge dB AB|GE ED EF GE|
D2 DE G2 GA|B2 ~BA Bc d2|de ge dB AB|1 G2 [g2B2] [g2B2] GE:|2 G2 [g2B2] [g2B2] ga||
|:[b2d2] [b2d2] ~a2 a2|ga ge d2 Bc|de ge dB AB|GE ED EF GA|
~b2 b2 ~a2 a2|ga ge d2 Bc|de ge dB AB|1 G2 [g2B2] [g2B2] ga:|2 G2 [g2B2] [g4B4]||

